udata_front/theme/gouvfr/templates/svg/burger-menu.svg

<svg fill="none" height="25" viewBox="0 0 24 25" width="24" xmlns="http://www.w3.org/2000/svg"><path clip-rule="evenodd" d="m3 4.16284h18v2.01328h-18zm0 7.04836h12v2.0133h-12zm0 7.0477h18v2.0133h-18z" fill="#000" fill-rule="evenodd"/></svg>

<svg width="24" height="25" viewBox="0 0 24 25" fill="none" xmlns="http://www.w3.org/2000/svg">
<g id="menu-2-fill">
<path id="&#240;&#159;&#142;&#168; Couleur ic&#195;&#180;ne" fill-rule="evenodd" clip-rule="evenodd" d="M3 4.16284H21V6.17612H3V4.16284ZM3 11.2112H15V13.2245H3V11.2112ZM3 18.2589H21V20.2722H3V18.2589Z" fill="black"/>
</g>
</svg>
